X:59
T:Jigs simple chords 212
M:3/4
L:1/8
K:Em
d[g2G,2B,2D2]g dB | d[g2G,2B,2D2]g d2 | c[BG,B,D] cd cB | A[BG,B,D] G4 | d[g2G,2B,2D2]g dB |
d[gG,B,D] ab a2 | g[aD,F,A,] ba gf | e[fD,F,A,] d4 | d[e2C,2E,2G,2]e d2 |
d[cA,CE] dc B2 | B[cD,F,A,C] BA BA | G[A2D,2F,2A,2C2]F D2 | d[g2G,2B,2D2]g d2 |
d[cC,E,G,] de d2 | d[gG,B,D] ab ag | a[bG,B,D] g4 | B[e2E,2G,2B,2]e d2 |
d[cA,CE] dc B2 | B[BE,G,B,] cB AG | F[GE,G,B,] E4 | B[e2E,2G,2B,2]e d2 |
d[cA,CE] dc B2 | B[BE,G,B,] cB AG | A[cB,^DFA] B4 | B[c2C,2E,2G,2]c B2 |
B[cC,E,G,] cc B2 | B[cA,CE] BA BA | G[A2A,2C2E2]G F2 | B[e2E,2G,2B,2]e d2 |
d[cA,CE] dc B2 | B[BB,DF] cB AG | F[GE,G,B,] E4 |


